X: 19739
T: Jenny Picking Cockles
R: reel
M: 4/4
K: Dmixolydian
|:Addc AGEF|GEcE dEcE|Addc AGEF|GEcE EDD2|
Addc AGEF|GEcA d2cd|eddc AGEF|GEcE EDD2:|
|:f2fd efed|^cAAB cdeg|fedf ed^cd|eaag edde|
f2fd efed|^cAAB =c3d|ecdc AGEF|GEcE EDD2:|

